X:1
T:Gradus ad Parnassum: Part I Exercises
T:CC0 1.0 Universal (Public Domain). Mark Gotham and FourScoreAndMore.org waive all rights to this document.
T:CC0 1.0 Universal (Public Domain). Mark Gotham and FourScoreAndMore.org waive all rights to this document.
T:CC0 1.0 Universal (Public Domain). Mark Gotham and FourScoreAndMore.org waive all rights to this document.
T:CC0 1.0 Universal (Public Domain). Mark Gotham and FourScoreAndMore.org waive all rights to this document.
T:CC0 1.0 Universal (Public Domain). Mark Gotham and FourScoreAndMore.org waive all rights to this document.
T:CC0 1.0 Universal (Public Domain). Mark Gotham and FourScoreAndMore.org waive all rights to this document.
T:CC0 1.0 Universal (Public Domain). Mark Gotham and FourScoreAndMore.org waive all rights to this document.
T:CC0 1.0 Universal (Public Domain). Mark Gotham and FourScoreAndMore.org waive all rights to this document.
T:CC0 1.0 Universal (Public Domain). Mark Gotham and FourScoreAndMore.org waive all rights to this document.
T:CC0 1.0 Universal (Public Domain). Mark Gotham and FourScoreAndMore.org waive all rights to this document.
T:CC0 1.0 Universal (Public Domain). Mark Gotham and FourScoreAndMore.org waive all rights to this document.
Z:CC0 1.0 Universal (Public Domain). Mark Gotham and FourScoreAndMore.org waive all rights to this document.
%%score { 1 2 }
L:1/8
M:4/4
K:C
V:1 treble nm="Piano"
V:2 treble nm="Piano"
V:1
"^Fig. 5; Species: 1; Modal final: d; Cantus firmus: Lower" x8 | x8 | x8 | x8 | x8 | x8 | x8 | x8 | %8
 x8 | x8 | x8 |] %11
"^Fig. 6 (corrected version); Species: 1; Modal final: d; Cantus firmus: Upper" D8 | F8 | E8 | D8 | %15
 G8 | F8 | A8 | G8 | F8 | E8 | D8 |] %22
"^Fig. 11; Species: 1; Modal final: e; Cantus firmus: Lower" x8 | x8 | x8 | x8 | x8 | x8 | x8 | %29
 x8 | x8 | x8 |] %32
"^Fig. 12 (corrected version); Species: 1; Modal final: e; Cantus firmus: Upper" E8 | C8 | D8 | %35
 C8 | A,8 | A8 | G8 | E8 | F8 | E8 |] %42
"^Fig. 13; Species: 1; Modal final: f; Cantus firmus: Lower" x8 | x8 | x8 | x8 | x8 | x8 | x8 | %49
 x8 | x8 | x8 | x8 | x8 |] %54
[K:treble-8]"^Fig. 14; Species: 1; Modal final: f; Cantus firmus: Upper" F8 | G8 | A8 | F8 | D8 | %59
 E8 | F8 | c8 | A8 | F8 | G8 | F8 |] %66
[K:treble]"^Fig. 15 (corrected version); Species: 1; Modal final: g; Cantus firmus: Lower" x8 | %67
 x8 | x8 | x8 | x8 | x8 | x8 | x8 | x8 | x8 | x8 | x8 | x8 | x8 |] %80
"^Fig. 21; Species: 1; Modal final: g; Cantus firmus: Upper" G,8 | C8 | B,8 | G,8 | C8 | E8 | D8 | %87
 G8 | E8 | C8 | D8 | B,8 | A,8 | G,8 |] %94
"^Fig. 22; Species: 1; Modal final: a; Cantus firmus: Lower" x8 | x8 | x8 | x8 | x8 | x8 | x8 | %101
 x8 | x8 | x8 | x8 | x8 |]"^Fig. 23; Species: 1; Modal final: a; Cantus firmus: Upper" A,8 | C8 | %108
 B,8 | D8 | C8 | E8 | F8 | E8 | D8 | C8 | B,8 | A,8 |] %118
"^Fig. 33 (corrected version of 26); Species: 2; Modal final: d; Cantus firmus: Lower" x8 | x8 | %120
 x8 | x8 | x8 | x8 | x8 | x8 | x8 | x8 | x8 |] %129
"^Fig. 35; Species: 2; Modal final: d; Cantus firmus: Upper" D8 | F8 | E8 | D8 | G8 | F8 | A8 | %136
 G8 | F8 | E8 | D8 |]"^Fig. 36; Species: 2; Modal final: e; Cantus firmus: Lower" z4 x4 | x8 | x8 | %143
 x8 | x8 | x8 | x8 | x8 | x8 | x8 |] %150
"^Fig. 37; Species: 2; Modal final: e; Cantus firmus: Upper" E8 | C8 | D8 | C8 | A,8 | A8 | G8 | %157
 E8 | F8 | E8 |][K:treble]"^Fig. 38; Species: 2; Modal final: f; Cantus firmus: Lower" z4 x4 | x8 | %162
 x8 | x8 | x8 | x8 | x8 | x8 | x8 | x8 | x8 | x8 |] %172
[K:treble-8]"^Fig. 39; Species: 2; Modal final: f; Cantus firmus: Upper" F8 | G8 | A8 | F8 | D8 | %177
 E8 | F8 | c8 | A8 | F8 | G8 | F8 |] %184
[K:treble]"^Fig. 40; Species: 2; Modal final: g; Cantus firmus: Lower" z4 x4 | x8 | x8 | x8 | x8 | %189
 x8 | x8 | x8 | x8 | x8 | x8 | x8 | x8 | x8 |] %198
"^Fig. 41; Species: 2; Modal final: g; Cantus firmus: Upper" G,8 | C8 | B,8 | G,8 | C8 | E8 | D8 | %205
 G8 | E8 | C8 | D8 | B,8 | A,8 | G,8 |] %212
"^Fig. 42; Species: 2; Modal final: a; Cantus firmus: Lower" z4 x4 | x8 | x8 | x8 | x8 | x8 | x8 | %219
 x8 | x8 | x8 | x8 |]"^Fig. 43; Species: 2; Modal final: a; Cantus firmus: Upper" A,8 | C8 | B,8 | %226
 D8 | C8 | E8 | F8 | E8 | D8 | C8 | B,8 | A,8 |] %235
[K:treble]"^Fig. 44; Species: 2; Modal final: c; Cantus firmus: Lower" z4 x4 | x8 | x8 | x8 | x8 | %240
 x8 | x8 | x8 | x8 | x8 | x8 | x8 |] %247
"^Fig. 45; Species: 2; Modal final: c; Cantus firmus: Upper" C8 | E8 | F8 | G8 | E8 | A8 | G8 | %254
 E8 | F8 | E8 | D8 | C8 |]"^Fig. 55; Species: 3; Modal final: d; Cantus firmus: Lower" x8 | x8 | %261
 x8 | x8 | x8 | x8 | x8 | x8 | x8 | x8 | x8 |] %270
"^Fig. 56; Species: 3; Modal final: d; Cantus firmus: Upper" D8 | F8 | E8 | D8 | G8 | F8 | A8 | %277
 G8 | F8 | E8 | D8 |][K:treble]"^Fig. 57; Species: 3; Modal final: e; Cantus firmus: Lower" x8 | %282
 x8 | x8 | x8 | x8 | x8 | x8 | x8 | x8 | x8 |] %291
[K:treble]"^Fig. 58; Species: 3; Modal final: e; Cantus firmus: Upper" E8 | C8 | D8 | C8 | A,8 | %296
 A8 | G8 | E8 | F8 | E8 |] %301
[K:treble]"^Fig. 59; Species: 3; Modal final: f; Cantus firmus: Lower" x8 | x8 | x8 | x8 | x8 | %306
 x8 | x8 | x8 | x8 | x8 | x8 | x8 |] %313
[K:treble-8]"^Fig. 59; Species: 3; Modal final: f; Cantus firmus: Upper" F8 | G8 | A8 | F8 | D8 | %318
 E8 | F8 | c8 | A8 | F8 | G8 | F8 |] %325
[K:treble]"^Fig. 73; Species: 4; Modal final: d; Cantus firmus: Lower" z4 x4 | x8 | x8 | x8 | x8 | %330
 x8 | x8 | x8 | x8 | x8 | x8 |] %336
[K:treble]"^Fig. 74; Species: 4; Modal final: d; Cantus firmus: Upper" D8 | F8 | E8 | D8 | G8 | %341
 F8 | A8 | G8 | F8 | E8 | D8 |] %347
[K:treble]"^Fig. 75; Species: 4; Modal final: e; Cantus firmus: Lower" z4 x4 | x8 | x8 | x8 | x8 | %352
 x8 | x8 | x8 | x8 | x8 |] %357
[K:treble]"^Fig. 76; Species: 4; Modal final: e; Cantus firmus: Upper" E8 | C8 | D8 | C8 | A,8 | %362
 A8 | G8 | E8 | F8 | E8 |] %367
[K:treble]"^Fig. 77; Species: 4; Modal final: f; Cantus firmus: Lower" z4 x4 | x8 | x8 | x8 | x8 | %372
 x8 | x8 | x8 | x8 | x8 | x8 | x8 |] %379
[K:treble-8]"^Fig. 78; Species: 4; Modal final: f; Cantus firmus: Upper" F8 | G8 | A8 | F8 | D8 | %384
 E8 | F8 | c8 | A8 | F8 | G8 | F8 |] %391
[K:treble]"^Fig. 82; Species: 5; Modal final: d; Cantus firmus: Lower" z4 x4 | x8 | x8 | x8 | x8 | %396
 x8 | x8 | x8 | x8 | x8 | x8 |] %402
[K:treble-8]"^Fig. 83; Species: 5; Modal final: d; Cantus firmus: Upper" d8 | f8 | e8 | d8 | g8 | %407
 f8 | a8 | g8 | f8 | e8 | d8 |] %413
[K:treble]"^Fig. 84a; Species: 5; Modal final: e; Cantus firmus: Lower" z4 x4 | x8 | x8 | x8 | x8 | %418
 x8 | x8 | x8 | x8 | x8 |] %423
[K:treble]"^Fig. 84b; Species: 5; Modal final: e; Cantus firmus: Upper" E8 | C8 | D8 | C8 | A,8 | %428
 A8 | G8 | E8 | F8 | E8 |] %433
[K:treble]"^Fig. 85a; Species: 5; Modal final: f; Cantus firmus: Lower" z4 x4 | x8 | x8 | x8 | x8 | %438
 x8 | x8 | x8 | x8 | x8 | x8 | x8 |] %445
[K:treble-8]"^Fig. 85b; Species: 5; Modal final: f; Cantus firmus: Upper" F8 | G8 | A8 | F8 | D8 | %450
 E8 | F8 | c8 | A8 | F8 | G8 | F8 |] %457
[K:treble]"^Fig. 86a; Species: 5; Modal final: g; Cantus firmus: Lower" z4 x4 | x8 | x8 | x8 | x8 | %462
 x8 | x8 | x8 | x8 | x8 | x8 | x8 | x8 | x8 |] %471
"^Fig. 86b; Species: 5; Modal final: g; Cantus firmus: Upper" G,8 | C8 | B,8 | G,8 | C8 | E8 | D8 | %478
 G8 | E8 | C8 | D8 | B,8 | A,8 | G,8 |] %485
"^Fig. 87a; Species: 5; Modal final: a; Cantus firmus: Lower" z4 x4 | x8 | x8 | x8 | x8 | x8 | x8 | %492
 x8 | x8 | x8 | x8 | x8 |] %497
[K:treble]"^Fig. 87a; Species: 5; Modal final: a; Cantus firmus: Upper" A,8 | C8 | B,8 | D8 | C8 | %502
 E8 | F8 | E8 | D8 | C8 | B,8 | A,8 |] %509
[K:treble]"^Fig. 88a; Species: 5; Modal final: c; Cantus firmus: Lower" z4 x4 | x8 | x8 | x8 | x8 | %514
 x8 | x8 | x8 | x8 |]"^Fig. 88b; Species: 5; Modal final: c; Cantus firmus: Upper" C8 | D8 | F8 | %521
 E8 | G8 | F8 | E8 | D8 | C8 |] %527
V:2
 D8 | F8 | E8 | D8 | G8 | F8 | A8 | G8 | F8 | E8 | D8 |][K:treble-8] x8 | x8 | x8 | x8 | x8 | x8 | %17
 x8 | x8 | x8 | x8 | x8 |][K:treble] E8 | C8 | D8 | C8 | A,8 | A8 | G8 | E8 | F8 | E8 |] %32
[K:treble-8] x8 | x8 | x8 | x8 | x8 | x8 | x8 | x8 | x8 | x8 |][K:treble] F8 | G8 | A8 | F8 | D8 | %47
 E8 | F8 | c8 | A8 | F8 | G8 | F8 |][K:bass] x8 | x8 | x8 | x8 | x8 | x8 | x8 | x8 | x8 | x8 | x8 | %65
 x8 |][K:treble] G,8 | C8 | B,8 | G,8 | C8 | E8 | D8 | G8 | E8 | C8 | D8 | B,8 | A,8 | G,8 |] %80
[K:treble-8] x8 | x8 | x8 | x8 | x8 | x8 | x8 | x8 | x8 | x8 | x8 | x8 | x8 | x8 |][K:treble] A,8 | %95
 C8 | B,8 | D8 | C8 | E8 | F8 | E8 | D8 | C8 | B,8 | A,8 |][K:treble-8] x8 | x8 | x8 | x8 | x8 | %111
 x8 | x8 | x8 | x8 | x8 | x8 | x8 |][K:treble] D8 | F8 | E8 | D8 | G8 | F8 | A8 | G8 | F8 | E8 | %128
 D8 |][K:bass] z4 x4 | x8 | x8 | x8 | x8 | x8 | x8 | x8 | x8 | x8 | x8 |][K:treble] E8 | C8 | D8 | %143
 C8 | A,8 | A8 | G8 | E8 | F8 | E8 |][K:treble-8] z4 x4 | x8 | x8 | x8 | x8 | x8 | x8 | x8 | x8 | %159
 x8 |][K:treble-8] F8 | G8 | A8 | F8 | D8 | E8 | F8 | c8 | A8 | F8 | G8 | F8 |] z4 x4 | x8 | x8 | %175
 x8 | x8 | x8 | x8 | x8 | x8 | x8 | x8 | x8 |][K:treble] G,8 | C8 | B,8 | G,8 | C8 | E8 | D8 | G8 | %192
 E8 | C8 | D8 | B,8 | A,8 | G,8 |][K:treble-8] z4 x4 | x8 | x8 | x8 | x8 | x8 | x8 | x8 | x8 | x8 | %208
 x8 | x8 | x8 | x8 |][K:treble] A,8 | C8 | B,8 | C8 | E8 | F8 | E8 | D8 | C8 | B,8 | A,8 |] %223
[K:bass] z4 x4 | x8 | x8 | x8 | x8 | x8 | x8 | x8 | x8 | x8 | x8 | x8 |][K:treble] C8 | E8 | F8 | %238
 G8 | E8 | A8 | G8 | E8 | F8 | E8 | D8 | C8 |][K:treble-8] z4 x4 | x8 | x8 | x8 | x8 | x8 | x8 | %254
 x8 | x8 | x8 | x8 | x8 |][K:treble] D8 | F8 | E8 | D8 | G8 | F8 | A8 | G8 | F8 | E8 | D8 |] %270
[K:treble] x8 | x8 | x8 | x8 | x8 | x8 | x8 | x8 | x8 | x8 | x8 |][K:treble] E8 | C8 | D8 | C8 | %285
 A,8 | A8 | G8 | E8 | F8 | E8 |][K:treble-8] x8 | x8 | x8 | x8 | x8 | x8 | x8 | x8 | x8 | x8 |] %301
[K:treble-8] F8 | G8 | A8 | F8 | D8 | E8 | F8 | c8 | A8 | F8 | G8 | F8 |][K:bass] x8 | x8 | x8 | %316
 x8 | x8 | x8 | x8 | x8 | x8 | x8 | x8 | x8 |][K:treble] D8 | F8 | E8 | D8 | G8 | F8 | A8 | G8 | %333
 F8 | E8 | D8 |][K:treble-8] z4 x4 | x8 | x8 | x8 | x8 | x8 | x8 | x8 | x8 | x8 | x8 |] %347
[K:treble] E8 | C8 | D8 | C8 | A,8 | A8 | G8 | E8 | F8 | E8 |][K:treble-8] z4 x4 | x8 | x8 | x8 | %361
 x8 | x8 | x8 | x8 | x8 | x8 |][K:treble-8] F8 | G8 | A8 | F8 | D8 | E8 | F8 | c8 | A8 | F8 | G8 | %378
 F8 |][K:bass] z4 x4 | x8 | x8 | x8 | x8 | x8 | x8 | x8 | x8 | x8 | x8 | x8 |][K:treble] D8 | F8 | %393
 E8 | D8 | G8 | F8 | A8 | G8 | F8 | E8 | D8 |][K:bass] z4 x4 | x8 | x8 | x8 | x8 | x8 | x8 | x8 | %410
 x8 | x8 | x8 |][K:treble] E8 | C8 | D8 | C8 | A,8 | A8 | G8 | E8 | F8 | E8 |][K:treble-8] z4 x4 | %424
 x8 | x8 | x8 | x8 | x8 | x8 | x8 | x8 | x8 |][K:treble-8] F8 | G8 | A8 | F8 | D8 | E8 | F8 | c8 | %441
 A8 | F8 | G8 | F8 |][K:bass] z4 x4 | x8 | x8 | x8 | x8 | x8 | x8 | x8 | x8 | x8 | x8 | x8 |] %457
[K:treble] G,8 | C8 | B,8 | G,8 | C8 | E8 | D8 | G8 | E8 | C8 | D8 | B,8 | A,8 | G,8 |] %471
[K:treble-8] z4 x4 | x8 | x8 | x8 | x8 | x8 | x8 | x8 | x8 | x8 | x8 | x8 | x8 | x8 |] %485
[K:treble] A,8 | C8 | B,8 | D8 | C8 | E8 | F8 | E8 | D8 | C8 | B,8 | A,8 |][K:treble-8] z4 x4 | %498
 x8 | x8 | x8 | x8 | x8 | x8 | x8 | x8 | x8 | x8 | x8 |][K:treble] C8 | D8 | F8 | E8 | G8 | F8 | %515
 E8 | D8 | C8 |][K:treble-8] z4 x4 | x8 | x8 | x8 | x8 | x8 | x8 | x8 | x8 |] %527

